!!!COM: Johannes Brahms
!!!CNT: Deutscher
!!!TXO: Deutsche
!!!OTL: Wa2hrend des Regens
!!!OPS: Op. 58
!!!ONM: No. 2
!!!LYR: Kopisch
!!!ONB: Original key: Db Major
!!!ENC: Ayako Kataoka        
!!!EED: Leigh VanHandel
!!!YOR: C.F. Peters, Brahms Lieder fu2r eine Singstimme mit Klavierbegleitung, Band III, ausgabe fu2r tiefere Stimme
!!!ODT: 1871/
!!NB: Vocal melody and text only encoded.
**kern	**silbe
*k[b-e-]	*
*M6/4	*
*MM[vivace]	*
!! tempo indication: Lebhaft
=3	=3
{(4d	{Vol-
4f)	|
4b-	-ler,
2dd	dich-
4cc	-ter
=4	=4
(4b-	tropft
4a)	|
4cc	ums
2g	Dach
4f}	da,}
=5	=5
*M9/4	*
{([2.dd	{Trop-
4dd]	|
4cc)	|
4a	-fen
(4b-	su2-
4a)	|
4cc	-sser
=6	=6
([2.ff	Re-
4ff]	|
4cc)	|
4a	-gen-
(2cc	-gu2s-
4g)	|
=7	=7
2a}	-se;}
4r	.
2.r	.
2.r	.
=8	=8
*M6/4	*
{(4d	{mei-
4f)	|
4b-	-nes
2dd	Lieb-
4cc	-chens
=9	=9
(4b-	hol-
4a)	|
4cc	-de
2g	Ku2s-
4f}	-se}
=10	=10
*M9/4	*
{([2.dd	{meh-
4dd]	|
4cc)	|
4a	-ren
(4b-	sich,
4a)}	|}
{4cc	{je
=11	=11
([2.ff	mehr,
4ff]	|
4cc)}	|}
{4a	{je
(4b-	mehr
ccq	|
b-q	|
4a)	|
4g	ihr
=12	=12
2g	trop-
4f}	-fet!}
2.r	.
2.r	.
=13	=13
{([2.f#	{Tropft
2f#]	|
4g#)	|
2f#}	ihr,}
4r	.
=14	=14
*M6/4	*
{2f#	{darf
4f#	ich
2bn	sie
4b	um-
=15	=15
2a#	-fas-
4cc#}	-sen,}
2.r	.
=16	=16
*M9/4	*
{([2.gn	{lasst
2g]	|
4an)	|
2f#}	ihr's,}
4r	.
=17	=17
*M6/4	*
{2f#	{will
4f#	sie
2bn	mich
4b	ent-
=18	=18
([1.ccn	las-
=19	=19
2cc]	|
4cc#	|
4ddn	|
4ccn)	|
4a}	-sen,}
=20	=20
{2bn	{will
4b	sie
2ccn	mich
4cc	ent-
=21	=21
([1.ee-	-las
=22	=22
2ee-]	|
4een	|
4ff	|
4ee-	|
4cc	|
=23	=23
2.b-)	|
4a}	-sen;}
4r	.
4r	.
=24	=24
{(4d	{Him-
4f)	|
4b-	-mel,
2dd	wer-
4cc	-de
=25	=25
(4b-	nur
4a)	|
4cc	nicht
2g	lich-
4f}	-ter,}
=26	=26
*M9/4	*
{([2.dd	{Trop-
4dd]	|
4ee-)	|
4b-	-fen,
(4dd	trop-
4ee-)	|
4b-	-fet
=27	=27
(4dd	im-
4cc)	|
4b-	-mer
2.g	dich-
4f}	-ter,}
4r	.
4r	.
=28	=28
{([2.dd	{im-
4dd]	|
4cc)	|
4b-	-mer,
(4dd	im-
4cc)	|
4b-	-mer
=29	=29
1.g	dich-
4f}	-ter,}
4r	.
4r	.
=30	=30
{1.cc	{dich-
4b-}	-ter,}
4r	.
4r	.
=31	=31
*M6/4	*
{1.b-	{dich-
=32	=32
4f}	-ter!}
4r	.
4r	.
2.r	.
*-	*-
